X: 33160
T: Princess Royal, The
R: reel
M: 4/4
K: Aminor
V:1
e>d|:"Am"c2 B3/2c/ A2 e3/2=f/|e3/2d/ c3/2B/ A2 (3efg|"D"f2 d2 d3/2e/ f3/2d/|
"Am"e3/2d/ c3/2B/ c2 (3cBA|"G"B2 g2 B2 A3/2G/|"Am"A3/2B/ A3/2G/ E2 e3/2d/|
"F"c2 (3ABc "G"B3/2A/ G3/2E/||1 "Am"A2 A3/2G/ A2 e3/2d/:|2 "Am"A2 A3/2G/ A3/2B/ c3/2d/||
|:"Am"e3/2a/ a3/2g/ a2-a3/2b/|a3/2g/ e3/2d/ e2-e3/2d/|"C"(3efg "D"(3fga g3/2f/ "Em"g3/2e/|
"G"d3/2c/ B3/2A/ G2 (3GAB|"Am"c2 B3/2c/ "G"d2 c3/2d/|"C"e3/2f/ g3/2e/ "Am"a2-a3/2g/|
"D"f2 A2 f2 g3/2f/|"Am"e2 (3ABc "G"d2 e3/2d/|"Am"c2 B3/2c/ A3/2B/ c3/2d/|
"Em"e2 E2 E2 e3/2d/|"F"c2 (3ABc "G"B3/2A/ G3/2E/||1 "Am"A2 A3/2G/ A3/2B/ c3/2d/:|2 "Am"A2 A3/2G/ A4||
V:2
C>D|:E2 D3/2E/ C2 A2|c3/2B/ A3/2G/ E2 (3cde|d2 AG F3/2G/ A3/2F/|
G3/2F/ E3/2D/ E2 (3EDC|D2 B2 D2 C3/2B,/|C3/2D/ C3/2B,/ A,2 C2|
=F2 (3FGA G3/2E/ D3/2C/||1 D2 E2 A,2 C3/2D/:|2 A,2 C2 E2 A3/2B/||
|:c3/2e/ e3/2d/ e2-e3/2d/|c3/2B/ A3/2B/ c2-c3/2B/|(3cde (3def e3/2d/ B3/2A/|
B3/2A/ G3/2D/ B,2 (3EFG|A2 G3/2A/ B2 A3/2B/|c3/2d/ e3/2c/ e2-e3/2d/|
d2 F2 d2 e3/2d/|c2 (3EGA B2 c3/2B/|A2 G3/2A/ C3/2D/ E3/2F/|
G4 B2 c3/2B/|A2 (3=FGA G3/2D/ B,2||1 A,2 C2 E2 A3/2B/:|2 C2 E2 [A,4E4]||

